X: 560
T: Old Woman Lamenting Her Purse., The
T: an sean .bean ag caoinea.d a sporan.
R:air
N:"With feeling."
B:O'Neill's 560
Z:transcription by J.B. Walsh walsh@math.ubc.ca
M:6/8
L:1/8
%Q:65
K:F
A "Segno"|AGG GBA|(TGFK).F F2 A|AGG GAc|ded (TdcA)|
AGG GBA|(TGF).F F2 D|(CF).F FGA|(ce).d (Tdc).A Hx:|
cde (f2 (e/f/))|gag (f2 d)|cde (f2 (g/b/))|(a/g/)fe (d2(f/g/))|
(.a.a.a) gfe|fdd (Tdc).A|(AG).G (GA).c|d>ed (Tdc).A "Segno":|


